X:378
T:Michaud veillait
C:trad.
A:Gascogne
O:France
M:2/4
L:1/8
Q:1/4=100
K:D
G|F2E2|D3A,|DE FG|A2 AG|F2 A2|D3F|ED CE|A2zD|
C2E2|A,3 D|CD EC|DE FE|FE FG|A2zd
|A2zd|A2zd|cB AG|F2G2|A2zd
|A2zd|A2zd|cB AG|F2E2|D2||
W:
W:Michaud veillait le soir dans sa chaumire
W:Prs du hameau il gardait son troupeau.
W:Le ciel brillait d'une vive lumire
W:Il se mit  chanter:
W:Je vois, je vois, je vois l'toile du berger (bis)
W:
W:Au bruit qu'il fit, le pasteur de Jude
W:Tout en sursaut, s'en va trouver Michaud
W:Ah ! qu'il lui dit, ah! quelle heureuse journe
W:A l'heure de minuit
W:Est n, est n, est n ce que l'ange a prdit (bis)
W:
W:La Vierge tait assise dans l'table
W:L'ne mangeait et le boeuf ruminait
W:Joseph priait cet enfant adorable
W:Cet enfant non pareil
W:Nol, Nol, Nol brillant comme un soleil (bis)
